!!!OTL: MUSS ICH MICH GETAEUSCHET WISSEN
!!!ARE: Europa, Mitteleuropa, Deutschland, Hochwald, Hellertshausen
!!!SCT: B0484
!!!YEM: Copyright 1995, estate of Helmut Schaffrath.
**kern
*ICvox
*Ivox
*M3/4
*k[b-]
*F:
=1
{8.f
16c
8f
8a
8.dd
16cc
=2
8a
8f
4a}
{8.cc
16cc
=3
4.b-
8c
8.a
16g
=4
4f
2r}
=5
{8.f
16c
8f
8a
8.dd
16cc
=6
8a
8f
4a}
{8.cc
16cc
=7
4.b-
8c
8.a
16g
=8
4f
2r}
=9
{8.g
16g
8g
8g
8a
8bn
=10
4dd
4cc}
{8b-
8a
=11
4g
4b-
8.dd
16cc
=12
4a
2r}
=13
{8.f
16c
8f
8a
8.dd
16cc
=14
8a
8f
4a}
{8.cc
16cc
=15
4.b-
8c
8.a
16g
=16
4f
2r}
==
!!!AGN: Liebes - Lied, Leid, Klage
!!!ONB: ESAC (Essen Associative Code) Database: BOEHME
!!!AMT: simple triple
!!!AIN: vox
!!!EED: Helmut Schaffrath
!!!EEV: 1.0
*-
